Numix/48/mimetypes/text-rust.svg

<?xml version="1.0" encoding="UTF-8" standalone="no"?>
<svg
   xmlns:dc="http://purl.org/dc/elements/1.1/"
   xmlns:cc="http://creativecommons.org/ns#"
   xmlns:rdf="http://www.w3.org/1999/02/22-rdf-syntax-ns#"
   xmlns:svg="http://www.w3.org/2000/svg"
   xmlns="http://www.w3.org/2000/svg"
   xmlns:sodipodi="http://sodipodi.sourceforge.net/DTD/sodipodi-0.dtd"
   xmlns:inkscape="http://www.inkscape.org/namespaces/inkscape"
   width="48"
   viewBox="0 0 48 48"
   height="48"
   id="svg2"
   version="1.1"
   inkscape:version="0.91 r13725"
   sodipodi:docname="text-rust.svg">
  <metadata
     id="metadata18">
    <rdf:RDF>
      <cc:Work
         rdf:about="">
        <dc:format>image/svg+xml</dc:format>
        <dc:type
           rdf:resource="http://purl.org/dc/dcmitype/StillImage" />
        <dc:title />
      </cc:Work>
    </rdf:RDF>
  </metadata>
  <defs
     id="defs16" />
  <sodipodi:namedview
     pagecolor="#ffffff"
     bordercolor="#666666"
     borderopacity="1"
     objecttolerance="10"
     gridtolerance="10"
     guidetolerance="10"
     inkscape:pageopacity="0"
     inkscape:pageshadow="2"
     inkscape:window-width="1366"
     inkscape:window-height="704"
     id="namedview14"
     showgrid="false"
     inkscape:zoom="5.6568542"
     inkscape:cx="22.594142"
     inkscape:cy="19.593032"
     inkscape:window-x="0"
     inkscape:window-y="27"
     inkscape:window-maximized="1"
     inkscape:current-layer="svg2">
    <inkscape:grid
       type="xygrid"
       id="grid4156" />
  </sodipodi:namedview>
  <path
     style="fill:#b2542c;fill-opacity:1"
     d="M 8,1 C 6.9714285,1 6,1.9714285 6,3 l 0,42 c 0,0.971429 1.0285714,2 2,2 l 32,0 c 0.971429,0 2,-1.028571 2,-2 L 42,14 29,1 z"
     id="path4" />
  <path
     style="fill-opacity:.196"
     d="M 29,12 29.0625,12.0625 29.21875,12 29,12 z m 2,2 11,11 0,-11 -11,0 z"
     id="path6" />
  <path
     style="fill:#fff;fill-opacity:.392"
     d="m 29,1 13,13 -11,0 c -0.971429,0 -2,-1.028571 -2,-2 L 29,1 z"
     id="path8" />
  <path
     inkscape:connector-curvature="0"
     style="opacity:1;fill:#ffffff;fill-opacity:1;stroke:none;stroke-width:2;stroke-linecap:round;stroke-linejoin:round;stroke-miterlimit:4;stroke-dasharray:none;stroke-opacity:1"
     d="m 23.398438,16 -0.957032,2.128906 A 10,10 0 0 0 20.40625,18.66797 l -1.886718,-1.359376 -1.039062,0.597656 0.234374,2.32422 a 10,10 0 0 0 -1.484374,1.484374 l -2.32422,-0.234374 -0.597656,1.039062 1.367188,1.898436 A 10,10 0 0 0 14.13672,26.441406 L 12,27.398438 l 0,1.203124 2.128906,0.957032 a 10,10 0 0 0 0.539064,2.035156 l -1.359376,1.886718 0.597656,1.039064 2.32422,-0.234376 a 10,10 0 0 0 1.484374,1.484376 l -0.234374,2.324218 1.039062,0.597656 1.898438,-1.367188 a 10,10 0 0 0 2.023436,0.539064 L 23.398438,40 l 1.203124,0 0.957032,-2.128906 a 10,10 0 0 0 2.035156,-0.539062 l 1.886718,1.359374 1.039064,-0.597656 -0.234376,-2.324218 a 10,10 0 0 0 1.484376,-1.484376 l 2.324218,0.234376 0.597656,-1.039064 -1.367188,-1.898436 a 10,10 0 0 0 0.539064,-2.023438 L 36,28.601562 36,27.398438 33.871094,26.441406 A 10,10 0 0 0 33.332032,24.40625 L 34.691406,22.519532 34.09375,21.48047 31.769532,21.714844 A 10,10 0 0 0 30.285156,20.23047 l 0.234376,-2.32422 -1.039064,-0.597656 -1.898436,1.367188 A 10,10 0 0 0 25.558594,18.13672 L 24.601562,16 23.398438,16 Z M 24,20 a 8,8 0 0 1 8,8 8,8 0 0 1 -8,8 8,8 0 0 1 -8,-8 8,8 0 0 1 8,-8 z"
     id="path4145" />
  <path
     sodipodi:nodetypes="cccscccscccccccccccccccccc"
     inkscape:connector-curvature="0"
     id="path4143-5"
     style="font-style:normal;font-variant:normal;font-weight:bold;font-stretch:normal;font-size:6.69263983px;line-height:125%;font-family:'Roboto Slab';-inkscape-font-specification:'Roboto Slab Bold';letter-spacing:0px;word-spacing:0px;fill:#ffffff;fill-opacity:1;stroke:none;stroke-width:1px;stroke-linecap:butt;stroke-linejoin:miter;stroke-opacity:1"
     d="m 24.4,23 c 2.798291,0 3.9,1.375 3.9,3 0,1.666665 -1.459037,2.576334 -2.3,2.725 0.68243,0.179029 0.827544,0.874556 1.2,2.025 0.32375,1 0.563591,1.25 1.8,1.25 l 0,0.999997 -1.875,0 c -0.983621,0 -1.152826,-0.786911 -1.5,-1.749997 C 25.129338,29.875 24.748708,29 23.625,29 L 22,29 l 0,3.000001 1,-2e-6 L 23,33 l -4,0 0,-1.000001 1,2e-6 L 20,24 l -1,0 0,-1 z m -2.4,5 2.1875,0 C 25.875,28 26.4,26.911355 26.4,26 c 0,-1.214857 -0.876562,-2 -2.21875,-2 L 22,24 Z" />
</svg>

<svg xmlns="http://www.w3.org/2000/svg" viewBox="0 0 48 48">
 <path d="m 8 1 c -1.029 0 -2 0.971 -2 2 l 0 42 c 0 0.971 1.029 2 2 2 l 32 0 c 0.971 0 2 -1.029 2 -2 l 0 -31 -13 -13 z" style="fill:#b2542c;fill-opacity:1"/>
 <path d="m 29 12 0.063 0.063 0.156 -0.063 -0.219 0 z m 2 2 11 11 0 -11 -11 0 z" style="fill-opacity:0.196"/>
 <path d="m 29 1 13 13 -11 0 c -0.971 0 -2 -1.029 -2 -2 l 0 -11 z" style="fill:#fff;fill-opacity:0.392"/>
 <path d="m 23.398 16 -0.957 2.129 a 10 10 0 0 0 -2.035 0.539 l -1.887 -1.359 -1.039 0.598 0.234 2.324 a 10 10 0 0 0 -1.484 1.484 l -2.324 -0.234 -0.598 1.039 1.367 1.898 a 10 10 0 0 0 -0.539 2.023 l -2.137 0.957 l 0 1.203 2.129 0.957 a 10 10 0 0 0 0.539 2.035 l -1.359 1.887 0.598 1.039 2.324 -0.234 a 10 10 0 0 0 1.484 1.484 l -0.234 2.324 1.039 0.598 1.898 -1.367 a 10 10 0 0 0 2.023 0.539 l 0.957 2.137 l 1.203 0 0.957 -2.129 a 10 10 0 0 0 2.035 -0.539 l 1.887 1.359 1.039 -0.598 -0.234 -2.324 a 10 10 0 0 0 1.484 -1.484 l 2.324 0.234 0.598 -1.039 -1.367 -1.898 a 10 10 0 0 0 0.539 -2.023 l 2.137 -0.957 0 -1.203 -2.129 -0.957 a 10 10 0 0 0 -0.539 -2.035 l 1.359 -1.887 -0.598 -1.039 -2.324 0.234 a 10 10 0 0 0 -1.484 -1.484 l 0.234 -2.324 -1.039 -0.598 -1.898 1.367 a 10 10 0 0 0 -2.023 -0.539 l -0.957 -2.137 -1.203 0 m 0.602 4 a 8 8 0 0 1 8 8 8 8 0 0 1 -8 8 8 8 0 0 1 -8 -8 8 8 0 0 1 8 -8 z" style="fill:#fff;opacity:1;fill-opacity:1;stroke:none"/>
 <path d="m 24.4 23 c 2.798 0 3.9 1.375 3.9 3 0 1.667 -1.459 2.576 -2.3 2.725 0.682 0.179 0.828 0.875 1.2 2.025 0.324 1 0.564 1.25 1.8 1.25 l 0 1 -1.875 0 c -0.984 0 -1.153 -0.787 -1.5 -1.75 c -0.496 -1.375 -0.876 -2.25 -2 -2.25 l -1.625 0 l 0 3 1 0 l 0 1 l -4 0 0 -1 1 0 l 0 -8 l -1 0 0 -1 z m -2.4 5 2.188 0 c 1.688 0 2.212 -1.089 2.212 -2 c 0 -1.215 -0.877 -2 -2.219 -2 l -2.181 0" style="fill:#fff;fill-opacity:1;stroke:none"/>
</svg>
